X: 12735
T: Father Kelly's
R: reel
M: 4/4
K: Gmajor
dedB cBAB|G2BG DGBG|~A2AB cBAG|EAAG ABce|
dedB cBAB|G2BG DGBG|AGAB cdef|gdcA AGG2:|
dggf gdBd|eaag ageg|(3fed ad bd ad|~g2ge dcBc|
dggf gdBd|eaag agef|gage d2Bc|dBcA BGG2:|

